X:187
T:score265
L:1/8
Q:1/4=96
M:3/4
I:linebreak $
K:D
!ff! f>(b !>!a2) .f.a | (3:2:2(T^g2 e A2) .E.G | (TF2 A)(f Aa) | E4 (e2 |$ f) z/(b/ !>!a2) .f.a | %5
 (3:2:2(Tg2 e A2) .E.G | (TF2 A)(fAe) | d4 z2 |] %8
